components/Common/Svg/svgs/titledFlutter.svg

<svg
  width="96"
  height="148"
  viewBox="0 0 96 148"
  fill="none"
  xmlns="http://www.w3.org/2000/svg"
>
  <path
    d="M28.976 125.454V126.786H23.522V131.016H27.95V132.348H23.522V138H21.884V125.454H28.976ZM32.5924 124.68V138H30.9544V124.68H32.5924ZM44.132 128.136V138H42.494V136.542C42.182 137.046 41.744 137.442 41.18 137.73C40.628 138.006 40.016 138.144 39.344 138.144C38.576 138.144 37.886 137.988 37.274 137.676C36.662 137.352 36.176 136.872 35.816 136.236C35.468 135.6 35.294 134.826 35.294 133.914V128.136H36.914V133.698C36.914 134.67 37.16 135.42 37.652 135.948C38.144 136.464 38.816 136.722 39.668 136.722C40.544 136.722 41.234 136.452 41.738 135.912C42.242 135.372 42.494 134.586 42.494 133.554V128.136H44.132ZM48.8957 129.486V135.3C48.8957 135.78 48.9977 136.122 49.2017 136.326C49.4057 136.518 49.7597 136.614 50.2637 136.614H51.4697V138H49.9937C49.0817 138 48.3977 137.79 47.9417 137.37C47.4857 136.95 47.2577 136.26 47.2577 135.3V129.486H45.9797V128.136H47.2577V125.652H48.8957V128.136H51.4697V129.486H48.8957ZM55.4524 129.486V135.3C55.4524 135.78 55.5544 136.122 55.7584 136.326C55.9624 136.518 56.3164 136.614 56.8204 136.614H58.0264V138H56.5504C55.6384 138 54.9544 137.79 54.4984 137.37C54.0424 136.95 53.8144 136.26 53.8144 135.3V129.486H52.5364V128.136H53.8144V125.652H55.4524V128.136H58.0264V129.486H55.4524ZM69.011 132.69C69.011 133.002 68.993 133.332 68.957 133.68H61.073C61.133 134.652 61.463 135.414 62.063 135.966C62.675 136.506 63.413 136.776 64.277 136.776C64.985 136.776 65.573 136.614 66.041 136.29C66.521 135.954 66.857 135.51 67.049 134.958H68.813C68.549 135.906 68.021 136.68 67.229 137.28C66.437 137.868 65.453 138.162 64.277 138.162C63.341 138.162 62.501 137.952 61.757 137.532C61.025 137.112 60.449 136.518 60.029 135.75C59.609 134.97 59.399 134.07 59.399 133.05C59.399 132.03 59.603 131.136 60.011 130.368C60.419 129.6 60.989 129.012 61.721 128.604C62.465 128.184 63.317 127.974 64.277 127.974C65.213 127.974 66.041 128.178 66.761 128.586C67.481 128.994 68.033 129.558 68.417 130.278C68.813 130.986 69.011 131.79 69.011 132.69ZM67.319 132.348C67.319 131.724 67.181 131.19 66.905 130.746C66.629 130.29 66.251 129.948 65.771 129.72C65.303 129.48 64.781 129.36 64.205 129.36C63.377 129.36 62.669 129.624 62.081 130.152C61.505 130.68 61.175 131.412 61.091 132.348H67.319ZM72.8111 129.738C73.0991 129.174 73.5071 128.736 74.0351 128.424C74.5751 128.112 75.2291 127.956 75.9971 127.956V129.648H75.5651C73.7291 129.648 72.8111 130.644 72.8111 132.636V138H71.1731V128.136H72.8111V129.738Z"
    fill="#A0A0A0"
  ></path>
  <path
    d="M73.6174 45.48H53.1936L35.3242 63.121L45.5336 73.1983L73.6174 45.48Z"
    fill="#A3A3A3"
  ></path>
  <path
    d="M30.2138 58.0811L20 48L53.1901 15.2412H73.6139L30.2138 58.0811Z"
    fill="#A3A3A3"
  ></path>
  <path
    d="M45.5312 73.1983L53.1913 80.7588H73.6151L55.7451 63.121L45.5312 73.1983Z"
    fill="#6A6A6A"
  ></path>
  <path
    d="M45.5312 73.1983L60.6782 68.0235L55.7451 63.121L45.5312 73.1983Z"
    fill="url(#paint0_linear_4433_7648)"
  ></path>
  <path
    d="M45.528 53.0402L35.3164 63.119L45.528 73.1979L55.7395 63.119L45.528 53.0402Z"
    fill="#868686"
  ></path>
  <defs>
    <linearGradient
      id="paint0_linear_4433_7648"
      x1="48.5104"
      y1="75.1457"
      x2="56.0172"
      y2="67.5401"
      gradientUnits="userSpaceOnUse"
    >
      <stop stop-color="#393939" stop-opacity="0.5"></stop>
      <stop
        offset="1"
        stop-color="#393939"
        stop-opacity="0"
      ></stop>
    </linearGradient>
  </defs>
</svg>

<svg width="96" height="148" viewBox="0 0 96 148" fill="none" xmlns="http://www.w3.org/2000/svg"><path d="M28.976 125.454v1.332h-5.454v4.23h4.428v1.332h-4.428V138h-1.638v-12.546h7.092Zm3.616-.774V138h-1.638v-13.32h1.638Zm11.54 3.456V138h-1.638v-1.458c-.312.504-.75.9-1.314 1.188a4.047 4.047 0 0 1-1.836.414c-.768 0-1.458-.156-2.07-.468a3.582 3.582 0 0 1-1.458-1.44c-.348-.636-.522-1.41-.522-2.322v-5.778h1.62v5.562c0 .972.246 1.722.738 2.25.492.516 1.164.774 2.016.774.876 0 1.566-.27 2.07-.81.504-.54.756-1.326.756-2.358v-5.418h1.638Zm4.764 1.35v5.814c0 .48.102.822.306 1.026.204.192.558.288 1.062.288h1.206V138h-1.476c-.912 0-1.596-.21-2.052-.63-.456-.42-.684-1.11-.684-2.07v-5.814H45.98v-1.35h1.278v-2.484h1.638v2.484h2.574v1.35h-2.574Zm6.556 0v5.814c0 .48.102.822.306 1.026.204.192.558.288 1.062.288h1.206V138H56.55c-.912 0-1.596-.21-2.052-.63-.456-.42-.684-1.11-.684-2.07v-5.814h-1.278v-1.35h1.278v-2.484h1.638v2.484h2.574v1.35h-2.574Zm13.559 3.204c0 .312-.018.642-.054.99h-7.884c.06.972.39 1.734.99 2.286.612.54 1.35.81 2.214.81.708 0 1.296-.162 1.764-.486.48-.336.816-.78 1.008-1.332h1.764a4.284 4.284 0 0 1-1.584 2.322c-.792.588-1.776.882-2.952.882-.936 0-1.776-.21-2.52-.63a4.492 4.492 0 0 1-1.728-1.782c-.42-.78-.63-1.68-.63-2.7 0-1.02.204-1.914.612-2.682a4.254 4.254 0 0 1 1.71-1.764c.744-.42 1.596-.63 2.556-.63.936 0 1.764.204 2.484.612.72.408 1.272.972 1.656 1.692.396.708.594 1.512.594 2.412Zm-1.692-.342c0-.624-.138-1.158-.414-1.602a2.605 2.605 0 0 0-1.134-1.026c-.468-.24-.99-.36-1.566-.36-.828 0-1.536.264-2.124.792-.576.528-.906 1.26-.99 2.196h6.228Zm5.492-2.61a3.16 3.16 0 0 1 1.224-1.314c.54-.312 1.194-.468 1.962-.468v1.692h-.432c-1.836 0-2.754.996-2.754 2.988V138h-1.638v-9.864h1.638v1.602Z" fill="#A0A0A0"/><path d="M73.617 45.48H53.194l-17.87 17.641 10.21 10.077L73.617 45.48ZM30.214 58.081 20 48l33.19-32.759h20.424l-43.4 42.84Z" fill="#A3A3A3"/><path d="m45.531 73.198 7.66 7.56h20.424l-17.87-17.637-10.214 10.077Z" fill="#6A6A6A"/><path d="m45.531 73.198 15.147-5.174-4.933-4.903-10.214 10.077Z" fill="url(#a)"/><path d="M45.528 53.04 35.316 63.12l10.212 10.079L55.74 63.119 45.528 53.04Z" fill="#868686"/><defs><linearGradient id="a" x1="48.51" y1="75.146" x2="56.017" y2="67.54" gradientUnits="userSpaceOnUse"><stop stop-color="#393939" stop-opacity=".5"/><stop offset="1" stop-color="#393939" stop-opacity="0"/></linearGradient></defs></svg>
